svg/design/intersect_line.svg

<svg xmlns="http://www.w3.org/2000/svg" width="24" height="24" viewBox="0 0 24 24"><g fill="none"><path d="M24,0 L24,24 L0,24 L0,0 L24,0 Z M12.5935,23.2578 L12.5819,23.2595 L12.5109,23.295 L12.4919,23.2987 L12.4767,23.295 L12.4057,23.2595 C12.3958,23.2564 12.387,23.259 12.3821,23.2649 L12.378,23.2758 L12.3609,23.7031 L12.3659,23.7235 L12.3769,23.7357 L12.4805,23.8097 L12.4953,23.8136 L12.5071,23.8097 L12.6107,23.7357 L12.6233,23.7197 L12.6267,23.7031 L12.6096,23.2758 C12.6076,23.2657 12.601,23.2593 12.5935,23.2578 Z M12.8584,23.1453 L12.8445,23.1473 L12.6598,23.2397 L12.6499,23.2499 L12.6472,23.2611 L12.6651,23.6906 L12.6699,23.7034 L12.6784,23.7105 L12.8793,23.8032 C12.8914,23.8069 12.9022,23.803 12.9078,23.7952 L12.9118,23.7812 L12.8777,23.1665 C12.8753,23.1546 12.8674,23.147 12.8584,23.1453 Z M12.143,23.1473 C12.1332,23.1424 12.1222,23.1453 12.1156,23.1526 L12.1099,23.1665 L12.0758,23.7812 C12.0751,23.7927 12.0828,23.8019 12.0926,23.8046 L12.1083,23.8032 L12.3092,23.7105 L12.3186,23.7024 L12.3225,23.6906 L12.3404,23.2611 L12.3372,23.2485 L12.3278,23.2397 L12.143,23.1473 Z"/><path fill="#09244B" d="M5,3 C3.89543,3 3,3.89543 3,5 L3,5.75 C3,6.30228 3.44772,6.75 4,6.75 C4.55228,6.75 5,6.30228 5,5.75 L5,5 L5.75,5 C6.30228,5 6.75,4.55228 6.75,4 C6.75,3.44772 6.30228,3 5.75,3 L5,3 Z M8.75,3 C8.19772,3 7.75,3.44772 7.75,4 C7.75,4.55228 8.19772,5 8.75,5 L10.25,5 C10.8023,5 11.25,4.55228 11.25,4 C11.25,3.44772 10.8023,3 10.25,3 L8.75,3 Z M13.25,3 C12.6977,3 12.25,3.44772 12.25,4 C12.25,4.55228 12.6977,5 13.25,5 L14,5 L14,5.66667 C14,6.21895 14.4477,6.66667 15,6.66667 C15.5523,6.66667 16,6.21895 16,5.66667 L16,5 C16,3.89543 15.1046,3 14,3 L13.25,3 Z M15.9572,8.04285 C15.8327,7.63223 15.4513,7.33333 15,7.33333 C14.5646,7.33333 14.1942,7.6116 14.0569,8 L10,8 C8.89543,8 8,8.89543 8,10 L8,14.0569 C7.6116,14.1942 7.33333,14.5646 7.33333,15 C7.33333,15.4513 7.63223,15.8327 8.04285,15.9572 C8.1673,16.3678 8.54874,16.6667 9,16.6667 C9.43541,16.6667 9.80582,16.3884 9.9431,16 L14,16 C15.1046,16 16,15.1046 16,14 L16,9.9431 C16.3884,9.80582 16.6667,9.43541 16.6667,9 C16.6667,8.54874 16.3678,8.1673 15.9572,8.04285 Z M10,10 L14,10 L14,14 L10,14 L10,10 Z M5,8.75 C5,8.19772 4.55228,7.75 4,7.75 C3.44772,7.75 3,8.19772 3,8.75 L3,10.25 C3,10.8023 3.44772,11.25 4,11.25 C4.55228,11.25 5,10.8023 5,10.25 L5,8.75 Z M5,13.25 C5,12.6977 4.55228,12.25 4,12.25 C3.44772,12.25 3,12.6977 3,13.25 L3,14 C3,15.1046 3.89543,16 5,16 L5.66667,16 C6.21895,16 6.66667,15.5523 6.66667,15 C6.66667,14.4477 6.21895,14 5.66667,14 L5,14 L5,13.25 Z M19,21 C20.1046,21 21,20.1046 21,19 L21,18.25 C21,17.6977 20.5523,17.25 20,17.25 C19.4477,17.25 19,17.6977 19,18.25 L19,19 L18.25,19 C17.6977,19 17.25,19.4477 17.25,20 C17.25,20.5523 17.6977,21 18.25,21 L19,21 Z M15.25,21 C15.8023,21 16.25,20.5523 16.25,20 C16.25,19.4477 15.8023,19 15.25,19 L13.75,19 C13.1977,19 12.75,19.4477 12.75,20 C12.75,20.5523 13.1977,21 13.75,21 L15.25,21 Z M10.75,21 C11.3023,21 11.75,20.5523 11.75,20 C11.75,19.4477 11.3023,19 10.75,19 L10,19 L10,18.3333 C10,17.781 9.55229,17.3333 9,17.3333 C8.44771,17.3333 8,17.781 8,18.3333 L8,19 C8,20.1046 8.89543,21 10,21 L10.75,21 Z M19,15.25 C19,15.8023 19.4477,16.25 20,16.25 C20.5523,16.25 21,15.8023 21,15.25 L21,13.75 C21,13.1977 20.5523,12.75 20,12.75 C19.4477,12.75 19,13.1977 19,13.75 L19,15.25 Z M19,10.75 C19,11.3023 19.4477,11.75 20,11.75 C20.5523,11.75 21,11.3023 21,10.75 L21,10 C21,8.89543 20.1046,8 19,8 L18.3333,8 C17.781,8 17.3333,8.44771 17.3333,9 C17.3333,9.55229 17.781,10 18.3333,10 L19,10 L19,10.75 Z"/></g></svg>

<svg xmlns="http://www.w3.org/2000/svg" width="24" height="24"><g fill="none"><path d="M24 0v24H0V0zM12.594 23.258l-.012.002-.071.035-.02.004-.014-.004-.071-.036c-.01-.003-.019 0-.024.006l-.004.01-.017.428.005.02.01.013.104.074.015.004.012-.004.104-.074.012-.016.004-.017-.017-.427c-.002-.01-.009-.017-.016-.018m.264-.113-.014.002-.184.093-.01.01-.003.011.018.43.005.012.008.008.201.092c.012.004.023 0 .029-.008l.004-.014-.034-.614c-.003-.012-.01-.02-.02-.022m-.715.002a.023.023 0 0 0-.027.006l-.006.014-.034.614c0 .012.007.02.017.024l.015-.002.201-.093.01-.008.003-.011.018-.43-.003-.012-.01-.01z"/><path fill="#09244B" d="M5 3a2 2 0 0 0-2 2v.75a1 1 0 0 0 2 0V5h.75a1 1 0 0 0 0-2zm3.75 0a1 1 0 0 0 0 2h1.5a1 1 0 1 0 0-2zm4.5 0a1 1 0 1 0 0 2H14v.667a1 1 0 1 0 2 0V5a2 2 0 0 0-2-2zm2.707 5.043a1 1 0 0 0-1.9-.043H10a2 2 0 0 0-2 2v4.057a1 1 0 0 0 .043 1.9 1 1 0 0 0 1.9.043H14a2 2 0 0 0 2-2V9.943a1 1 0 0 0-.043-1.9M10 10h4v4h-4zM5 8.75a1 1 0 0 0-2 0v1.5a1 1 0 1 0 2 0zm0 4.5a1 1 0 1 0-2 0V14a2 2 0 0 0 2 2h.667a1 1 0 1 0 0-2H5zM19 21a2 2 0 0 0 2-2v-.75a1 1 0 1 0-2 0V19h-.75a1 1 0 1 0 0 2zm-3.75 0a1 1 0 1 0 0-2h-1.5a1 1 0 1 0 0 2zm-4.5 0a1 1 0 1 0 0-2H10v-.667a1 1 0 1 0-2 0V19a2 2 0 0 0 2 2zM19 15.25a1 1 0 1 0 2 0v-1.5a1 1 0 1 0-2 0zm0-4.5a1 1 0 1 0 2 0V10a2 2 0 0 0-2-2h-.667a1 1 0 1 0 0 2H19z"/></g></svg>
